modules/coreui-icons-brand/icons/buy-me-a-coffee.svg

<svg version="1.1" xmlns="http://www.w3.org/2000/svg" width="32" height="32" viewBox="0 0 32 32">
<title>buy-me-a-coffee</title>
<path d="M9.197 0l-1.619 3.735h-2.407v3.359h0.921l0.943 5.975h-1.473l1.948 10.973 1.249-0.015 1.256 7.973h11.891l0.083-0.531 1.172-7.443 1.188 0.015 1.943-10.973h-1.407l0.937-5.975h1.011v-3.359h-2.557l-1.625-3.735zM9.901 1.073h12.057l1.025 2.375h-14.115zM6.235 4.803h19.525v1.228h-19.525zM6.839 14.136h18.183l-1.568 8.823-7.536-0.079-7.511 0.079z"></path>
</svg>

<svg xmlns="http://www.w3.org/2000/svg" width="32" height="32" viewBox="0 0 32 32"><path d="M9.197 0L7.578 3.735H5.171v3.359h.921l.943 5.975H5.562L7.51 24.042l1.249-.015L10.015 32h11.891l.083-.531 1.172-7.443 1.188.015 1.943-10.973h-1.407l.937-5.975h1.011V3.734h-2.557L22.651-.001zm.704 1.073h12.057l1.025 2.375H8.868zm-3.666 3.73H25.76v1.228H6.235zm.604 9.333h18.183l-1.568 8.823-7.536-.079-7.511.079z"/></svg>
